src/icons/svg/QuestionOutline.svg

<svg width="24" height="24" viewBox="0 0 24 24" fill="none" xmlns="http://www.w3.org/2000/svg">
<g clip-path="url(#clip0)">
<path d="M12.111 -0.0019989C5.48396 -0.0019989 0.110962 5.371 0.110962 11.999C0.110962 18.627 5.48396 23.999 12.111 23.999C18.739 23.999 24.111 18.627 24.111 11.999C24.111 5.371 18.739 -0.0019989 12.111 -0.0019989V-0.0019989ZM12.111 22.498C6.31196 22.498 1.61096 17.797 1.61096 11.998C1.61096 6.199 6.31196 1.498 12.111 1.498C17.91 1.498 22.611 6.199 22.611 11.998C22.611 17.797 17.91 22.498 12.111 22.498Z" fill="#1C2125"/>
<path d="M12.282 6.377C10.731 6.377 9.52204 7.015 8.73804 8.046L9.55404 8.93C10.158 8.112 10.926 7.589 12.167 7.589C13.441 7.589 14.078 8.292 14.078 9.11C14.078 10.845 11.138 11.008 11.138 13.087C11.138 13.594 11.318 14.054 11.759 14.429L12.755 13.987C12.477 13.792 12.33 13.463 12.33 13.201C12.33 11.598 15.482 11.385 15.482 8.913C15.482 7.506 14.274 6.377 12.281 6.377H12.282ZM12.103 15.819C11.613 15.819 11.204 16.229 11.204 16.719C11.204 17.209 11.612 17.619 12.103 17.619C12.594 17.619 13.002 17.21 13.002 16.719C13.002 16.229 12.593 15.819 12.103 15.819V15.819Z" fill="#1C2125"/>
</g>
<defs>
<clipPath id="clip0">
<rect width="24" height="24" fill="white"/>
</clipPath>
</defs>
</svg>

<!-- Generated by IcoMoon.io -->
<svg version="1.1" xmlns="http://www.w3.org/2000/svg" width="24" height="24" viewBox="0 0 24 24">
<title>question-outline</title>
<path fill="#444" d="M12.111-0.002c-6.627 0-12 5.373-12 12.001s5.373 12 12 12c6.628 0 12-5.372 12-12s-5.372-12.001-12-12.001v0zM12.111 22.498c-5.799 0-10.5-4.701-10.5-10.5s4.701-10.5 10.5-10.5c5.799 0 10.5 4.701 10.5 10.5s-4.701 10.5-10.5 10.5v0z"></path>
<path fill="#444" d="M12.282 6.377c-1.551 0-2.76 0.638-3.544 1.669l0.816 0.884c0.604-0.818 1.372-1.341 2.613-1.341 1.274 0 1.911 0.703 1.911 1.521 0 1.735-2.94 1.898-2.94 3.977 0 0.507 0.18 0.967 0.621 1.342l0.996-0.442c-0.278-0.195-0.425-0.524-0.425-0.786 0-1.603 3.152-1.816 3.152-4.288 0-1.407-1.208-2.536-3.201-2.536v0zM12.103 15.819c-0.49 0-0.899 0.41-0.899 0.9s0.408 0.9 0.899 0.9 0.899-0.409 0.899-0.9c-0-0.49-0.409-0.9-0.899-0.9v0z"></path>
</svg>
